app/assets/images/heroicons/solid/document-currency-bangladeshi.svg

<svg width="24" height="24" viewBox="0 0 24 24" fill="none" xmlns="http://www.w3.org/2000/svg">
<path fill-rule="evenodd" clip-rule="evenodd" d="M3.75 3.375C3.75 2.33947 4.58947 1.5 5.625 1.5H9C11.0711 1.5 12.75 3.17893 12.75 5.25V7.125C12.75 8.16053 13.5895 9 14.625 9H16.5C18.5711 9 20.25 10.6789 20.25 12.75V20.625C20.25 21.6605 19.4105 22.5 18.375 22.5H5.625C4.58947 22.5 3.75 21.6605 3.75 20.625V3.375ZM14.25 5.25C14.25 3.93695 13.768 2.73648 12.9712 1.8159C16.3701 2.70377 19.0462 5.37988 19.9341 8.77881C19.0135 7.98204 17.8131 7.5 16.5 7.5H14.625C14.4179 7.5 14.25 7.33211 14.25 7.125V5.25ZM10.5 10.8106C10.5 9.47427 8.88429 8.80502 7.93934 9.74996L7.71967 9.96963C7.42678 10.2625 7.42678 10.7374 7.71967 11.0303C8.01256 11.3232 8.48744 11.3232 8.78033 11.0303L9 10.8106L9 12.75H8.25C7.83579 12.75 7.5 13.0858 7.5 13.5C7.5 13.9143 7.83579 14.25 8.25 14.25H9V17.2509C9 17.9211 9.30725 18.7029 10.0675 19.0649C10.6539 19.3441 11.3098 19.5 12 19.5C13.7911 19.5 15.3364 18.4535 16.0604 16.9419C16.2935 16.4553 16.2019 15.9413 15.9247 15.5728C15.6576 15.2176 15.226 15 14.7574 15H14.25C13.8358 15 13.5 15.3358 13.5 15.75C13.5 16.1643 13.8358 16.5 14.25 16.5H14.5988C14.0793 17.3979 13.1093 18 12 18C11.5376 18 11.1016 17.8959 10.7123 17.7105C10.6207 17.6669 10.5 17.5243 10.5 17.2509V14.25H15.75C16.1642 14.25 16.5 13.9143 16.5 13.5C16.5 13.0858 16.1642 12.75 15.75 12.75H10.5V10.8106Z" fill="black"/>
</svg>

<svg xmlns="http://www.w3.org/2000/svg" viewBox="0 0 24 24" fill="currentColor" aria-hidden="true" data-slot="icon">
  <path fill-rule="evenodd" d="M3.75 3.375c0-1.036.84-1.875 1.875-1.875H9a3.75 3.75 0 0 1 3.75 3.75v1.875c0 1.036.84 1.875 1.875 1.875H16.5a3.75 3.75 0 0 1 3.75 3.75v7.875c0 1.035-.84 1.875-1.875 1.875H5.625a1.875 1.875 0 0 1-1.875-1.875V3.375Zm10.5 1.875a5.23 5.23 0 0 0-1.279-3.434 9.768 9.768 0 0 1 6.963 6.963A5.23 5.23 0 0 0 16.5 7.5h-1.875a.375.375 0 0 1-.375-.375V5.25Zm-3.75 5.56c0-1.336-1.616-2.005-2.56-1.06l-.22.22a.75.75 0 0 0 1.06 1.06l.22-.22v1.94h-.75a.75.75 0 0 0 0 1.5H9v3c0 .671.307 1.453 1.068 1.815a4.5 4.5 0 0 0 5.993-2.123c.233-.487.14-1-.136-1.37A1.459 1.459 0 0 0 14.757 15h-.507a.75.75 0 0 0 0 1.5h.349a2.999 2.999 0 0 1-3.887 1.21c-.091-.043-.212-.186-.212-.46v-3h5.25a.75.75 0 1 0 0-1.5H10.5v-1.94Z" clip-rule="evenodd"/>
</svg>
